X: 21573
T: Kilkelly, Ireland
R: reel
M: 4/4
K: Fmajor
D4DDD2|D2E2F4|FFF2E2D2|E3EEE2D|DC2D4D|D4DA,2D|
D3DDD3|DE2F4F|FF2E2D2E|E3EEE2D|DC2D4D|D4DA2A|
A3AAA2G|GF2G4G|GG2F2E2F|F3FFF2G|GF2E4E|E4EA,2D|
D3DDD3|DE2F4F|FF2E2D2E|E3EEE2D|DC2D4D|DD/||

